X: 38
M:2/4
L:1/16
K:G
uD2|G2B2 BAGA|B2e2 efge|d2B2 A2GA|BcBA GFED|
|:vef|vg3ua gfed|g2g2 a2ga|b2b2 a2ga|b2vbua gfed|
efga gfed|g2g2 a2ga|b2b2 a2ga|b2g2g2z2:|


